src/cmdx-favicon.svg

<?xml version="1.0" encoding="UTF-8" standalone="no"?>
<svg
   width="104.09778"
   height="112.266"
   viewBox="0 0 59.999569 64.708"
   xmlSpace="preserve"
   version="1.1"
   id="svg2"
   xmlns="http://www.w3.org/2000/svg"
   xmlns:svg="http://www.w3.org/2000/svg">
  <defs
     id="defs2" />
  <path
     d="m 29.907282,17.723 -3.508,5.447 -13.015,-19.847 h 3.507 l 9.508,14.77 1.938,-3.139 -9.6,-14.954 H 7.2912816 L 26.399282,29.262 45.045282,0 h -3.97 l -11.076,17.54 z M 9.2302816,61.293 h -3.139 L 24.737282,31.846 4.4302816,0.093 H 0.46028161 L 20.768282,31.939 -7.183923e-4,64.708 10.984282,64.616 l 39.138,-61.2 h 3.323 l -21.876,34.338 13.662,21.415 h 3.969 l -13.754,-21.415 24.091,-37.661 h -11.168 z m 29.6300004,-23.262 15.047,23.262 h -10.523 l -13.662,-20.77 -15.508,24.093 h 3.97 l 11.63,-18 11.723,18 h 18.462 l -18.83,-29.262 -0.278,-0.461 z"
     fill="#fe1817"
     id="path1" />
</svg>

<svg width="104.098" height="112.266" viewBox="0 0 60 64.708" xmlns="http://www.w3.org/2000/svg"><path d="M29.907 17.723 26.4 23.17 13.384 3.323h3.507l9.508 14.77 1.938-3.139L18.737 0H7.291L26.4 29.262 45.045 0h-3.97L30 17.54zM9.23 61.293H6.091l18.646-29.447L4.43.093H.46l20.308 31.846L0 64.708l10.985-.092 39.138-61.2h3.323L31.57 37.754l13.662 21.415h3.97L35.445 37.754 59.537.093H48.37zm29.63-23.262 15.047 23.262H43.384l-13.662-20.77-15.508 24.093h3.97l11.63-18 11.723 18H60L41.17 35.354l-.278-.461z" fill="#fff"/></svg>
